X: 36
M:6/8
L:1/8
K:D
|:d2 e f2 d|faf gec|d2 e f2 d|cBA d2 A|
d2 e f2 d|faf gec|d2 A B2 G|AFD D3:||

